X: 102
T: Miss G___ Wheem
%R: march, reel
B: Stewart "A Select Collection of Airs, Jigs, Marches and Reels", ca.1784, p.49 #102
F: http://imslp.org/wiki/A_Select_Collection_of_Airs,_Jigs,_Marches_and_Reels_%28Various%29
Z: 2017 John Chambers <jc:trillian.mit.edu>
N: The 1st (16-bar) has a double thick bar line in the middle, but a repeat only at the end.
M: 2/4
L: 1/16
K: D
|:\
d4 (fe).d.c | d2A2 A2(ef) | g2f2e2d2 | {d}c2Bc A4 |\
d4 (fe).d.c | d2A2 A2(fg) | a2g2f2e2 | d4 D4 |]|\
A6 df | (a4 f2)z2 | A6 ce | (g4 e2)z2 |
d2c2d2B2 | B2A2B2F2 | G2B2 AGFE | D4 D4 ::\
a2z2 f2z2 | d2z2 A2z2 | B2g2e2c2 | (dc).d.e d4 |\
a2z2 f2z2 | d2z2 A2z2 | B2g2e2c2 | d4 D4 :|

%%sep 1 1 500
%%sep 1 1 500

